X:1
T:Alma redemptoris mater
T:William Byrd (c.1540-1623)
T:Alma redemptoris mater
T:© Choral Public Domain Library 2010
T:© Choral Public Domain Library 2010
T:© Choral Public Domain Library 2010
T:© Choral Public Domain Library 2010
T:© Choral Public Domain Library 2010
T:© Choral Public Domain Library 2010
T:© Choral Public Domain Library 2010
C:William Byrd (c.1540-1623)
Z:© Choral Public Domain Library 2010
%%score [ 1 2 3 4 ]
L:1/8
M:4/4
K:C
V:1 treble nm="Alto" snm="S."
V:2 treble-8 transpose=-12 nm="Tenor" snm="M."
V:3 treble-8 transpose=-12 nm="Tenor" snm="T."
V:4 bass nm="Bass" snm="B."
V:1
 [G,e]2 |[M:4/2] z16 | G16 | A8 B8 | G4 c8 B4 | A8 G8 | A6 G2 A2 B2 c4- | c4 B4 c8 | c16 | A8 z8 | %10
w: ||Al-|ma re-|dem- pto- ris|ma- ter,|re- dem- pto- ris ma-|* * ter,|ma-|ter,|
 z4 D4 G3 A B4 | c6 BA G2 F2 E4 | ^F8 G8 | z16 | d6 c2 B4 A4 | G8 z4 ^F4 | G4 A4 B8 | G8 z4 A4 | %18
w: quæ per- vi- a|cæ- * * * * *|* li||por- ta ma- *|nes, et|stel- la ma-|ris, et|
 B4 c4 d8 | A4 A8 G2 F2 | E4 z2 c2 B4 A2 G2 | ^F4 D4 z8 | z4 z2 _B2 A4 G2 F2 | E4 C4 z8 | %24
w: stel- la ma-|ris, ma- * *|ris, suc- cur- re ca-|den- ti,|suc- cur- re ca-|den- ti,|
 z4 z2 d2 =B4 A2 G2 | ^F4 D4 z4 G4 | E4 D2 C2 B,4 G,4 | z4 C4 A,8 | G,8 z4 G4- | G2 A2 B2 c2 d8 | %30
w: suc- cur- re ca-|den- ti, suc-|cur- re ca- den- ti,|ca- den-|ti, sur-|* * * ge- re,|
 z4 A6 B2 c2 d2 | e8 z4 c4 | B4 E4 G6 A2 | B8 z8 | z4 G4 ^F4 D4 | ^F6 G2 A8 | z4 A4 d4 d2 c2 | %37
w: sur- * * ge-|re qui|cu- rat po- pu-|lo,|qui cu- rat|po- pu- lo,|tu quæ ge- nu-|
 B4 G4 G2 ^F2 G4- | G4 G,4 z4 E4 | G4 G2 F2 E2 F2 G4 | A16 | z8 z4 c4- | c4 B6 A2 G4 | d12 c4 | %44
w: i- sti, ge- nu- i-|* sti, tu|quæ ge- nu- i- * *|sti,|Na-|* tu- ra mi-|ran- *|
 B4 E4 G6 A2 | B2 c2 d2 c2 B8 | z4 G8 E4- | E2 D2 C4 c8 | F4 c4 e8 | d8 | z4 c8 G4 | A4 E4 F4 G4 | %52
w: te, mi- ran- *|* * * * te,|Na- tu-|* ra mi- ran-|te, mi- ran-|te,|tu- um|san- ctum ge- ni-|
 A2 G2 G8 ^F4 | G4 B6 G2 A2 ^F2 | G8 z8 | z4 e8 A4 | c4 G4 A4 B4 | c8 A8 | z8 z4 d4- | %59
w: to- * * *|rem, ge- ni- to- *|rem,|tu- um|san- ctum ge- ni-|to- rem,|tu-|
 d4 A4 B4 ^F4 | G6 A2 B2 c2 B4- | B4 A4 G8 | ^F8 z8 | z16 | z16 | z16 | z8 ^F6 G2 | A4 D4 z4 A4- | %68
w: * um san- ctum|ge- ni- to- * *||rem,||||Ga- bri-|e- lis ab|
 A4 d6 c2 B2 A2 | G2 ^F2 G4 D8 | z4 G,4 G6 F2 | E2 D2 C2 D2 E2 D2 D4- | D4 ^C4 D8 | z4 A8 c4 | %74
w: _ o- * * *|* * * re,|ab o- *||* * re|su- mens|
 B4 A4 ^G2 A4 G2 | A8 z8 | z4 d8 c4 | B4 A4 ^G2 A4 G2 | A16 | z16 | z4 G8 A4 | c6 B2 A2 G2 G4- | %82
w: il- lud A- * *|ve,|su- mens|il- lud A- * *|ve,||pec- ca-|to- rum mi- se- re-|
 G4 ^F4 G4 E2 c2 | B4 A4 z4 A4- | A4 B4 d6 c2 | B6 G2 B4 A4 | G4 A2 B2 c4 G4 | z4 D8 E4 | %88
w: * * re, mi- se-|re- re, pec-|* ca- to- rum|mi- se- re- *|re, mi- se- re- re,|pec- ca-|
 G6 F2 E2 D2 D4- | D4 ^C4 D8 | z8 z4 G4- | G4 A4 c6 B2 | A4 G4 ^F6 G2 | A4 B4 A2 G2 G2 ^FE | %94
w: to- rum mi- se- re-|* * re,|pec-|* ca- to- rum|mi- se- re- *||
 ^F4 G8 F4 | !fermata!G16 |] %96
w: |re.|
V:2
 [Dc']2 |[M:4/2] z16 | z16 | c8 d4 e4- | e4 c4 e2 f2 g4- | g4 ^f4 g4 c4- | c4 d4 c8 | %7
w: |||Al- ma re-|* dem- pto- ris ma-|* * ter, ma-|* * ter,|
 z4 G4 e3 f g4 | a6 gf e2 d2 c4 | d8 e8 | g6 f2 e4 d4 | c6 d2 e8 | z8 c6 B2 | A4 G4 F4 A4 | %14
w: quæ per- vi- a|cæ- * * * * *|* li|por- ta ma- *|nes, _ _|por- ta|ma- * * *|
 G8 d6 c2 | B4 G4 A4 z2 d2 | e4 ^f4 g4 d4 | z4 e4 ^f8 | g4 a8 ^f4 | z4 A4 d4 e4 | ^c8 d8 | %21
w: nes, por- ta|ma- * nes, et|stel- la ma- ris,|et stel-|la ma- ris,|et stel- la|ma- ris,|
 z4 z2 f2 e4 d2 c2 | B4 G4 z2 f2 e4 | c4 z2 e2 d4 c2 B2 | A4 ^F4 z2 d2 B4 | A2 G2 ^F8 D4 | %26
w: suc- cur- re ca-|den- ti, suc- cur-|re, suc- cur- re ca-|den- ti, suc- cur-|re ca- den- ti,|
 z4 f4 d4 c2 B2 | A3 G G8 ^F4 | G8 z8 | d6 e2 f2 g2 a4- | a2 b2 c'4 z4 a4 | g4 c4 e6 f2 | %32
w: suc- cur- re ca-|den- * * *|ti,|sur- * * * *|* ge- re qui|cu- rat po- pu-|
 g8 z4 G4- | G2 A2 B2 c2 d4 g4 | ^f4 B4 d6 c2 | A4 d8 ^c4 | d8 z4 A4 | d4 d2 c2 B4 G4 | %38
w: lo, sur-|* * * ge- re qui|cu- rat po- pu-|lo, po- pu-|lo, tu|quæ ge- nu- i- sti,|
 z4 d4 g4 g2 f2 | e4 c4 z2 c4 d2 | e4 A4 z4 f4- | f4 e6 d2 c4 | g8 G8 | z2 d4 a3 g g4 ^f2 | %44
w: tu quæ ge- nu-|i- sti, ge- nu-|i- sti, Na-|* tu- ra mi-|ran- te,|mi- ran- * * *|
 g8 z4 d4- | d4 B6 A2 G4 | g6 f2 e2 d2 c4 | z2 F2 A6 G2 A2 B2 | c2 d2 e4 c4 e2 g2- | g2 fe d4 | %50
w: te, Na-|* tu- ra mi-|ran- * * * te,|mi- ran- * * *|* * * te, mi- ran-||
 e16 | z8 z4 c4- | c4 B4 c4 A4 | B6 c2 d8 | G4 g8 ^f4 | g4 c4 e6 f2 | g6 fe f4 g4 | e8 z4 a4- | %58
w: te,|tu-|* um san- ctum|ge- ni- to-|rem, tu- um|san- ctum ge- ni-|to- * * * *|rem, tu-|
 a4 e4 g4 d4 | f6 e2 d8- | d4 G4 z4 g4- | g4 e4 d8 | d8 c8- | c4 c4 f6 e2 | d8 z4 g4- | %65
w: * um san- ctum|ge- ni- to-|* rem, ge-|* ni- to-|rem, Vir-|* go pri- *|us, ac|
 g4 e4 g6 f2 | e8 z8 | ^f6 g2 a4 d4 | z4 A8 d4- | d2 c2 B2 AG ^F4 G2 g2- | g2 f2 e2 dc B4 B4 | %71
w: _ po- ste- ri-|us,|Ga- bri- e- lis|ab o-|* * * * * re, ab o-|* * * * * re, ab|
 c2 d2 e2 d2 c2 B2 A2 B2 | c2 B2 A4 A8 | z4 f8 e4 | d4 c4 B8 | A8 z8 | z8 f6 e2 | d4 c4 B8 | %78
w: o- * * * * * * *|* * * re|su- mens|il- lud A-|ve,|su- mens|il- lud A-|
 A8 c6 B2 | A4 G4 f8 | e8 g6 f2 | e4 d4 c6 G2 | A8 G8 | g6 f2 e4 d4 | c2 B2 B2 AG A4 d4- | %85
w: ve, su- mens|il- lud A-|ve, pec- ca-|to- rum mi- se-|re- re,|pec- ca- to- rum|mi- se- re- * * re, pec-|
 d4 e4 g6 f2 | e2 d2 e8 d2 c2 | B2 AG A4 z4 E4- | E4 F4 G6 F2 | E4 E4 ^F4 F4 | z4 G8 d4 | %91
w: * ca- to- rum|mi- se- re- * *|* * * re, pec-|* ca- to- rum|mi- se- re- re,|pec- ca-|
 g6 f2 e4 d4 | c4 e4 d8 | ^F6 G2 A4 B2 d2- | d2 c2 B4 A8 | !fermata!G16 |] %96
w: to- rum mi- se-|re- * re,|pec- ca- to- rum mi-|* se- * re-|re.|
V:3
 [B,g]2 |[M:4/2] G8 A4 B4- | B4 G4 c4 B4 | A8 G8 | c16 | d8 e8 | c4 f8 e4 | d8 c8 | z4 F4 c3 d e4 | %9
w: |Al- ma re-|* dem- pto- ris|ma- ter,|al-|ma re-|dem- pto- ris|ma- ter,|quæ per- vi- a|
 f6 ed c2 B2 A4 | B8 c4 G4 | A3 G F4 c8 | d8 e8 | f6 e2 d4 c4 | B4 G8 ^F4 | G4 E4 D8 | z8 z4 G4 | %17
w: cæ- * * * * *|* li, quæ|per- vi- a cæ-|* li|por- ta ma- *|nes, por- ta|ma- * nes,|et|
 B4 c4 d4 D4 | z8 D8 | ^F12 G4 | A8 D8 | d8 c4 B2 A2 | G8 C8 | z4 z2 c2 B4 A2 G2 | ^F4 D4 G8 | %25
w: stel- la ma- ris,|et|stel- la|ma- ris,|suc- cur- re ca-|den- ti,|suc- cur- re ca-|den- ti, ca-|
 D8 B,8 | C4 D8 E2 D2 | C8 D8 | E8 G6 A2 | B2 c2 d4 D6 E2 | F4 F6 G2 A2 B2 | c8 C6 D2 | %32
w: den- ti,|suc- cur- re ca-|den- *|ti, sur- *|* ge- re, sur- ge-|re, sur- * * ge-|re, sur- *|
 E2 F2 G4 z4 e4 | d4 G4 B6 c2 | d8 z8 | z4 D4 F4 F2 E2 | D6 E2 ^F8 | G4 B4 d4 d2 c2 | B8 G8 | %39
w: * ge- re qui|cu- rat po- pu-|lo,|tu quæ ge- nu-|i- * *|sti, tu quæ ge- nu-|i- sti,|
 c4 e8 e2 d2 | ^c2 d4 c2 d4 d4- | d4 c6 B2 A4 | e6 dc d2 c2 B2 c2- | c2 BA B2 A2 ^F2 G2 A4 | G16 | %45
w: tu quæ ge- nu-|i- * * sti, Na-|* tu- ra mi-|ran- * * * * * *||te,|
 z4 d8 B4- | B2 A2 G4 g6 f2 | e2 f2 e2 c2 e3 d c2 B2 | A6 G2 A2 B2 c4- | c4 B4 | c8 z4 c4- | %51
w: Na- tu-|* ra mi- ran- *|* * te, mi- ran- * * *|||te, tu-|
 c4 G4 A4 E4 | F4 G4 A8 | G8 B6 A2 | c2 B2 B2 AG A8 | G8 c6 d2 | e8 A4 z2 e2- | e2 A2 c2 G2 A6 B2 | %58
w: * um san- ctum|ge- ni- to-|rem, ge- ni-|to- * * * * *|rem, ge- ni-|to- rem, tu-|* um san- ctum ge- ni-|
 c8 B8 | z4 d8 A4 | B4 E4 G6 A2 | B4 c4 B8 | A8 A8- | A4 A4 d6 c2 | B4 B8 G4 | c6 d2 e2 d2 d4- | %66
w: to- rem,|tu- um|san- ctum ge- ni-|to- * *|rem, Vir-|* go pri- *|us, ac po-|ste- * * * *|
 d4 ^c4 d8- | d8 z8 | ^F6 G2 A4 D4 | G4 d6 c2 B2 AG | A4 B2 c2 d4 z2 D2 | G6 F2 E4 F2 G2 | %72
w: * ri- us,|_|Ga- bri- e- lis|ab o- * * * *|* * * re, ab|o- * * * *|
 A6 G2 ^F2 E2 F2 G2 | A4 D4 A8 | z8 z4 d4- | d4 c4 B4 A4 | ^G2 A4 G2 A8 | z16 | z4 f8 e4 | %79
w: |* * re|su-|* mens il- lud|A- * * ve,||su- mens|
 d4 c4 B2 c4 B2 | c16 | z16 | z8 z4 G4- | G4 A4 c6 B2 | A2 G2 G8 ^F4 | G8 z8 | z4 A8 B4 | %87
w: il- lud A- * *|ve,||pec-|* ca- to- rum|mi- se- re- *|re,|pec- ca-|
 d6 c2 B4 c4 | e4 d2 c2 B8 | z4 A8 B4 | d6 c2 B2 A2 B4 | G4 z4 G8 | A4 c8 B4 | A4 G4 ^F4 G4 | %94
w: to- rum mi- se-|re- * * re,|pec- ca-|to- rum mi- se- re-|re, pec-|ca- to- rum|mi- se- re- re,|
 A4 B2 d4 cB A2 c2 | !fermata!B16 |] %96
w: mi- se- re- * * * *|re.|
V:4
 [G,,C]2 |[M:4/2] z16 | z16 | z16 | z16 | z16 | z16 | z16 | z16 | z16 | z16 | z16 | z16 | z16 | %14
w: ||||||||||||||
 z16 | z16 | z16 | z16 | z16 | z16 | z16 | z16 | z16 | z16 | z16 | z16 | z16 | z16 | %28
w: ||||||||||||||
 z4 C,6 D,2 E,2 F,2 | G,8 z4 F,4- | F,2 G,2 A,2 B,2 C8 | z8 z4 A,4 | G,4 C,4 E,6 F,2 | G,8 z4 E,4 | %34
w: Sur- * * ge-|re, sur-|* * * ge- re|qui|cu- rat po- pu-|lo, qui|
 D,4 G,,4 B,,6 C,2 | D,8 z4 A,,4 | F,4 F,2 E,2 D,8 | G,,8 z4 G,,4 | G,4 G,2 F,2 E,4 C,4 | %39
w: cu- rat po- pu-|lo, tu|quæ ge- nu- i-|sti, tu|quæ ge- nu- i- sti,|
 z4 C,4 C4 C2 B,2 | A,8 D,4 D,3 E, | F,2 G,2 A,4 A,,8 | z16 | z16 | z4 C,8 B,,4- | %45
w: tu quæ ge- nu-|i- sti, ge- nu-|i- * * sti,|||Na- tu-|
 B,,2 A,,2 G,,4 G,8- | G,8 G,,4 C,4 | C8 C,4 F,4- | F,4 E,6 D,2 C,4 | G,8 | C,16- | C,8 z8 | z16 | %53
w: * ra mi- ran-|* te, mi-|ran- te, Na-|* tu- ra mi-|ran-|te,|_||
 z4 G,8 D,4 | E,4 B,,4 C,4 D,4 | E,8 C,8 | z4 C8 G,4 | A,4 E,4 F,6 G,2 | A,8 G,8 | %59
w: tu- um|san- ctum ge- ni-|to- rem,|tu- um|san- ctum ge- ni-|to- rem,|
 D,6 C,2 B,,2 C,2 D,4 | G,,8 z4 G,,4- | G,,4 A,,4 B,,4 G,,4 | D,8 z8 | F,12 F,4 | G,6 F,2 E,8 | %65
w: ge- ni- to- * *|rem, ge-|* ni- to- *|rem,|Vir- go|pri- * us,|
 z4 C,8 D,4 | A,6 A,2 D,8 | z8 ^F,6 G,2 | A,4 D,4 z8 | B,,6 C,2 D,4 G,,4 | D,4 G,6 F,2 E,2 D,2 | %71
w: ac po-|ste- ri- us,|Ga- bri-|e- lis,|Ga- bri- e- lis|ab o- * * *|
 C,2 B,,2 C,8 D,4 | A,,8 D,8- | D,8 z8 | z16 | F,6 E,2 D,4 C,4 | B,,8 A,,8 | z16 | z8 A,6 G,2 | %79
w: |* re|_||su- mens il- lud|A- ve,||su- mens|
 F,4 E,4 D,8 | C,8 z4 C,4- | C,4 D,4 F,4 E,4 | D,6 C,2 B,,4 C,4 | G,,4 D,4 C,4 F,4- | F,4 G,4 D,8 | %85
w: il- lud A-|ve, pec-|* ca- to- rum|mi- se- re- *|re, mi- se- re-|* * re,|
 z4 G,8 A,4 | C6 B,2 A,2 G,2 G,4- | G,4 ^F,4 G,4 C,4- | C,4 D,4 G,,8 | A,,8 z4 D,4- | %90
w: pec- ca-|to- rum mi- se- re-|* * re, mi-|* se- re-|re, pec-|
 D,4 E,4 G,6 F,2 | E,4 D,4 C,8- | C,8 D,8 | D,12 G,,4 | D,16 | !fermata!G,,16 |] %96
w: * ca- to- rum|mi- se- re-|* re,|mi- se-|re-|re.|

